X: 12
T:Kirrie Kebbuck
M:4/4
L:1/8
Q:120
S:AB
R:Strathspey
K:D
B|"D"A<FF>A "G"B<GG>B|"A"c<Ae>c "D"(3dfe (3dcB|"D"A<FF>A "G"B<GG>B|"A7"c
<Ag>c "D"d2-d>B|!
|A<FF>A B<GG>B|c<Ae>c (3dfe (3dcB|A<FF>A B<GG>B|(3Agf (3edc d3 D|!
g|"D"f>g a>f d<a f>d|"G"g>a b>g ee|f>g a>f d<a f>d|"A7"(3Agf (3edc
"D"d2-d>g|!
|"D"f>g a>f (3dag (3fed|"Em"g>a b>g (3eba (3gfe|"D"(3fed "A"(3edc "G"(3d
cB "A"A>G|"D"F>D "A"E>C "D"D2-D||!
% <A name="D1X013">
